packages/ffe-icons/icons/open/300/sm/stress_management.svg

<svg xmlns="http://www.w3.org/2000/svg" height="20" viewBox="0 -960 960 960" width="20"><path d="M480.118-332.001q55.733 0 127.923-20.423t177.651-67.654q3.154-14.016 4.231-27.709Q791-461.481 791-476.266q0-11.324-10-18.53-10-7.205-21-4.205-13 4-28.5 9.5t-42.5 16.5q-67 27-113.806 38.5t-95.522 11.5q-49.672 0-98.672-11.5t-117-39.5q-23-10-38-15.5t-28-9.5q-11-4-20.5 3.717-9.5 7.717-9.5 19.036 0 14.781 1.077 28.662 1.077 13.882 4.231 27.893 97.297 44.804 173.431 66.248 76.135 21.444 133.379 21.444Zm-.287 144q98.4 0 173.4-45.539t110.693-120.309q-93.078 39.924-158.412 56.885-65.335 16.962-125.51 16.962-59.156 0-128.195-17.462-69.038-17.461-156.346-55.385 35.692 75.155 110.308 120.001 74.615 44.847 174.062 44.847ZM480-576q-56.154 0-95.076-38.923-38.923-38.923-38.923-95.076 0-56.154 38.923-95.077 38.922-38.923 95.076-38.923 56.154 0 95.076 38.923 38.923 38.923 38.923 95.077 0 56.153-38.923 95.076Q536.154-576 480-576Zm.287-51.999q33.944 0 57.829-24.172 23.885-24.172 23.885-58.116 0-33.943-24.172-57.828Q513.657-792 479.713-792t-57.829 24.172q-23.885 24.172-23.885 58.116t24.172 57.829q24.172 23.884 58.116 23.884Zm-.196 491.996q-160.475 0-262.282-95.23-101.808-95.231-101.808-244.618 0-39.15 30.731-61.688 30.73-22.538 67.114-10.615 13.671 4.931 27.812 9.842 14.141 4.911 42.649 16.773Q350-494.385 392.163-484.692 434.325-475 479.5-475q43.423 0 84.269-9.692 40.847-9.693 105.539-35.462 26.231-11 44.231-17.308 18-6.307 33.082-11.307 36.073-11.692 66.225 11.538 30.153 23.23 31.153 61.23 0 71.861-28.154 133.853-28.154 61.992-77.364 107.765-49.211 45.774-115.722 72.077-66.511 26.303-142.668 26.303Z"/></svg>

<svg xmlns="http://www.w3.org/2000/svg" height="20" viewBox="0 -960 960 960" width="20"><path d="M480.12-332q55.73 0 127.92-20.42 72.19-20.43 177.65-67.66 3.16-14.01 4.23-27.71 1.08-13.69 1.08-28.48 0-11.32-10-18.53-10-7.2-21-4.2-13 4-28.5 9.5T689-473q-67 27-113.81 38.5-46.8 11.5-95.52 11.5Q430-423 381-434.5T264-474q-23-10-38-15.5t-28-9.5q-11-4-20.5 3.72-9.5 7.71-9.5 19.03 0 14.78 1.08 28.66 1.07 13.89 4.23 27.9 97.3 44.8 173.43 66.24Q422.87-332 480.12-332Zm-.29 144q98.4 0 173.4-45.54t110.69-120.31q-93.07 39.92-158.41 56.89Q540.18-280 480-280q-59.15 0-128.19-17.46-69.04-17.47-156.35-55.39 35.69 75.16 110.31 120Q380.38-188 479.83-188Zm.17-388q-56.15 0-95.08-38.92Q346-653.85 346-710t38.92-95.08Q423.85-844 480-844t95.08 38.92Q614-766.15 614-710t-38.92 95.08Q536.15-576 480-576Zm.29-52q33.94 0 57.83-24.17Q562-676.34 562-710.29q0-33.94-24.17-57.83Q513.66-792 479.71-792q-33.94 0-57.83 24.17Q398-743.66 398-709.71q0 33.94 24.17 57.83Q446.34-628 480.29-628Zm-.2 492q-160.47 0-262.28-95.23Q116-326.46 116-475.85q0-39.15 30.73-61.69t67.12-10.61q13.67 4.93 27.81 9.84 14.14 4.91 42.65 16.77 65.69 27.16 107.85 36.85Q434.33-475 479.5-475q43.42 0 84.27-9.69 40.85-9.69 105.54-35.46 26.23-11 44.23-17.31 18-6.31 33.08-11.31 36.07-11.69 66.23 11.54Q843-514 844-476q0 71.86-28.16 133.85-28.15 61.99-77.36 107.77-49.21 45.77-115.72 72.07Q556.25-136 480.09-136Z"/></svg>
